src/icons/svg/DeleteFromTrash.svg

<svg width="24" height="24" viewBox="0 0 24 24" fill="none" xmlns="http://www.w3.org/2000/svg">
<path d="M12.917 11.146H12.403C12.138 11.146 11.923 11.361 11.923 11.626V19.563C11.923 19.828 12.138 20.043 12.403 20.043H12.917C13.182 20.043 13.397 19.828 13.397 19.563V11.626C13.397 11.361 13.182 11.146 12.917 11.146ZM12.797 19.44H12.523V11.746H12.797V19.44Z" fill="#1C2125"/>
<path d="M7.94198 11.146H7.42598C7.16098 11.146 6.94598 11.361 6.94598 11.626V19.563C6.94598 19.828 7.16098 20.043 7.42598 20.043H7.94198C8.20698 20.043 8.42198 19.828 8.42198 19.563V11.626C8.42198 11.361 8.20698 11.146 7.94198 11.146ZM7.82198 19.44H7.54598V11.746H7.82198V19.44Z" fill="#1C2125"/>
<path d="M10.428 11.146H9.91402C9.64902 11.146 9.43402 11.361 9.43402 11.626V19.563C9.43402 19.828 9.64902 20.043 9.91402 20.043H10.428C10.693 20.043 10.908 19.828 10.908 19.563V11.626C10.908 11.361 10.693 11.146 10.428 11.146ZM10.32 19.44H10.034V11.746H10.32V19.44Z" fill="#1C2125"/>
<path d="M21.374 16.334L20.508 13.082C20.427 12.782 20.156 12.564 19.835 12.564C19.771 12.564 19.71 12.573 19.651 12.589L19.656 12.588L18.12 12.998L17.177 9.451C17.156 9.374 17.086 9.318 17.003 9.318C16.986 9.318 16.97 9.32 16.955 9.325H16.956L16.294 9.503V8.831C16.294 8.83 16.294 8.829 16.294 8.829C16.294 8.731 16.214 8.651 16.116 8.651C16.115 8.651 16.114 8.651 16.113 8.651H15.499L15.797 7.249C15.799 7.238 15.8 7.226 15.8 7.213C15.8 7.126 15.74 7.054 15.659 7.035H15.658L12.66 6.399V5.626C12.66 5.527 12.579 5.446 12.48 5.446H7.57199C7.47299 5.446 7.39199 5.527 7.39199 5.626V6.783L4.87699 7.061C4.78699 7.073 4.71799 7.149 4.71799 7.242C4.71799 7.248 4.71799 7.255 4.71899 7.261V7.26L4.87299 8.64H4.23499C4.13599 8.64 4.05499 8.721 4.05499 8.82V10.38C4.05599 10.479 4.13599 10.559 4.23499 10.56H4.58799L5.20699 21.432C5.21299 21.526 5.29099 21.6 5.38699 21.6H14.963C15.058 21.6 15.136 21.526 15.143 21.433V21.432L15.717 11.426L18.379 21.427C18.401 21.504 18.471 21.56 18.555 21.56C18.571 21.56 18.587 21.558 18.602 21.554H18.601L20.108 21.151C20.185 21.131 20.241 21.061 20.241 20.979C20.241 20.962 20.239 20.947 20.235 20.931V20.932L19.347 17.596L20.883 17.186C21.183 17.105 21.401 16.834 21.401 16.513C21.401 16.449 21.392 16.388 21.376 16.329L21.377 16.334H21.374ZM12.66 7.013L15.12 7.534L14.88 8.64H12.66V7.013ZM7.99199 6.053H12.072V8.64H10.171L10.152 8.46L9.95499 6.67C9.94299 6.58 9.86699 6.511 9.77399 6.511C9.76799 6.511 9.76099 6.511 9.75499 6.512H9.75599L7.99199 6.721V6.053ZM7.39199 7.394L7.99199 7.327L9.40299 7.171L9.56899 8.64H5.48899L5.37399 7.601L7.39199 7.394ZM14.566 21.007H5.78399L5.18599 10.56H15.16L14.566 21.007ZM15.694 9.506V9.66L15.454 9.725C15.377 9.746 15.321 9.816 15.321 9.899C15.321 9.916 15.323 9.932 15.328 9.947V9.946V9.97H4.65499V9.25H15.695L15.694 9.506ZM19.534 20.681L18.838 20.866L16.008 10.188L16.294 10.111L16.704 10.003L19.534 20.681ZM18.574 14.717L19.152 14.563L19.462 15.722L18.881 15.876L18.72 15.288L18.574 14.717ZM20.734 16.608L19.774 16.862L19.2 17.016L19.183 16.954L19.051 16.457L20.035 16.193C20.113 16.172 20.17 16.102 20.17 16.019C20.17 16.003 20.168 15.988 20.164 15.974V15.975L19.638 14.002C19.617 13.925 19.547 13.869 19.464 13.869C19.447 13.869 19.431 13.871 19.416 13.876H19.417L18.421 14.138L18.272 13.579L19.813 13.171C19.821 13.169 19.83 13.167 19.84 13.167C19.884 13.167 19.92 13.197 19.931 13.237V13.238L20.797 16.492C20.799 16.499 20.8 16.507 20.8 16.516C20.8 16.562 20.768 16.6 20.726 16.61H20.725L20.734 16.608Z" fill="#1C2125"/>
</svg>

<!-- Generated by IcoMoon.io -->
<svg version="1.1" xmlns="http://www.w3.org/2000/svg" width="24" height="24" viewBox="0 0 24 24">
<title>delete-from-trash</title>
<path fill="#444" d="M12.917 11.146h-0.514c-0.265 0-0.48 0.215-0.48 0.48v0 7.937c0 0.265 0.215 0.48 0.48 0.48v0h0.514c0.265 0 0.48-0.215 0.48-0.48v0-7.937c0-0.265-0.215-0.48-0.48-0.48v0zM12.797 19.44h-0.274v-7.694h0.274z"></path>
<path fill="#444" d="M7.942 11.146h-0.516c-0.265 0-0.48 0.215-0.48 0.48v0 7.937c0 0.265 0.215 0.48 0.48 0.48v0h0.516c0.265 0 0.48-0.215 0.48-0.48v0-7.937c0-0.265-0.215-0.48-0.48-0.48v0zM7.822 19.44h-0.276v-7.694h0.276z"></path>
<path fill="#444" d="M10.428 11.146h-0.514c-0.265 0-0.48 0.215-0.48 0.48v0 7.937c0 0.265 0.215 0.48 0.48 0.48v0h0.514c0.265 0 0.48-0.215 0.48-0.48v0-7.937c0-0.265-0.215-0.48-0.48-0.48v0zM10.32 19.44h-0.286v-7.694h0.286z"></path>
<path fill="#444" d="M21.374 16.334l-0.866-3.252c-0.081-0.3-0.352-0.518-0.673-0.518-0.064 0-0.125 0.009-0.184 0.025l0.005-0.001-1.536 0.41-0.943-3.547c-0.021-0.077-0.091-0.133-0.174-0.133-0.017 0-0.033 0.002-0.048 0.007l0.001-0-0.662 0.178v-0.672c0-0.001 0-0.002 0-0.002 0-0.098-0.080-0.178-0.178-0.178-0.001 0-0.002 0-0.003 0h-0.614l0.298-1.402c0.002-0.011 0.003-0.023 0.003-0.036 0-0.087-0.060-0.159-0.141-0.178l-0.001-0-2.998-0.636v-0.773c0-0.099-0.081-0.18-0.18-0.18v0h-4.908c-0.099 0-0.18 0.081-0.18 0.18v0 1.157l-2.515 0.278c-0.090 0.012-0.159 0.088-0.159 0.181 0 0.006 0 0.013 0.001 0.019l-0-0.001 0.154 1.38h-0.638c-0.099 0-0.18 0.081-0.18 0.18v0 1.56c0.001 0.099 0.081 0.179 0.18 0.18h0.353l0.619 10.872c0.006 0.094 0.084 0.168 0.18 0.168 0 0 0 0 0 0h9.576c0 0 0 0 0 0 0.095 0 0.173-0.074 0.18-0.167l0-0.001 0.574-10.006 2.662 10.001c0.022 0.077 0.092 0.133 0.176 0.133 0.016 0 0.032-0.002 0.047-0.006l-0.001 0 1.507-0.403c0.077-0.020 0.133-0.090 0.133-0.172 0-0.017-0.002-0.032-0.006-0.048l0 0.001-0.888-3.336 1.536-0.41c0.3-0.081 0.518-0.352 0.518-0.673 0-0.064-0.009-0.125-0.025-0.184l0.001 0.005zM12.66 7.013l2.46 0.521-0.24 1.106h-2.22zM7.992 6.053h4.080v2.587h-1.901l-0.019-0.18-0.197-1.79c-0.012-0.090-0.088-0.159-0.181-0.159-0.006 0-0.013 0-0.019 0.001l0.001-0-1.764 0.209zM7.392 7.394l0.6-0.067 1.411-0.156 0.166 1.469h-4.080l-0.115-1.039zM14.566 21.007h-8.782l-0.598-10.447h9.974zM15.694 9.506v0.154l-0.24 0.065c-0.077 0.021-0.133 0.091-0.133 0.174 0 0.017 0.002 0.033 0.007 0.048l-0-0.001v0.024h-10.673v-0.72h11.040zM19.534 20.681l-0.696 0.185-2.83-10.678 0.286-0.077 0.41-0.108zM18.574 14.717l0.578-0.154 0.31 1.159-0.581 0.154-0.161-0.588zM20.734 16.608l-0.96 0.254-0.574 0.154-0.017-0.062-0.132-0.497 0.984-0.264c0.078-0.021 0.135-0.091 0.135-0.174 0-0.016-0.002-0.031-0.006-0.045l0 0.001-0.526-1.973c-0.021-0.077-0.091-0.133-0.174-0.133-0.017 0-0.033 0.002-0.048 0.007l0.001-0-0.996 0.262-0.149-0.559 1.541-0.408c0.008-0.002 0.017-0.004 0.027-0.004 0.044 0 0.080 0.030 0.091 0.070l0 0.001 0.866 3.254c0.002 0.007 0.003 0.015 0.003 0.024 0 0.046-0.032 0.084-0.074 0.094l-0.001 0z"></path>
</svg>
